images/icons/chevron-right-inverted.svg

<svg xmlns="http://www.w3.org/2000/svg" width="48" height="85" viewBox="0 0 48 85" aria-labelledby="chevron-right-title"><path d="M4.4 84.9c1.3 0 2.4-.5 3.2-1.4l38.7-37.8c1-.9 1.5-2 1.5-3.3 0-1.2-.5-2.4-1.5-3.2L7.7 1.4C6.8.5 5.7 0 4.4 0 1.9 0 0 2 0 4.5c0 1.2.5 2.3 1.3 3.2l35.5 34.7L1.3 77.2c-.8.8-1.3 2-1.3 3.2 0 2.5 1.9 4.5 4.4 4.5z" fill="#fff"/></svg>

<svg xmlns="http://www.w3.org/2000/svg" width="48" height="85" viewBox="0 0 48 85" aria-labelledby="chevron-right-title" role="img">
  <title id="chevron-right-title">Chevron Pointing Right</title>
  <g style="fill:none;stroke-width:1;stroke:none">
    <path d="M4.4 84.9C5.7 84.9 6.8 84.4 7.6 83.5L46.3 45.7C47.3 44.8 47.8 43.7 47.8 42.4 47.8 41.2 47.3 40 46.3 39.2L7.7 1.4C6.8 0.5 5.7 0 4.4 0 1.9 0 0 2 0 4.5 0 5.7 0.5 6.8 1.3 7.7L36.8 42.4 1.3 77.2C0.5 78 0 79.2 0 80.4 0 82.9 1.9 84.9 4.4 84.9Z" fill="#fff"/>
  </g>
</svg>
